images/client06.svg

<svg fill="none" height="200" viewBox="0 0 200 200" width="200" xmlns="http://www.w3.org/2000/svg"><path d="m160.495 100.216c0-33.4191-27.092-60.511-60.5111-60.511-33.4194 0-60.5112 27.0919-60.5112 60.511 0 33.42 27.0918 60.511 60.5112 60.511 33.4191 0 60.5111-27.091 60.5111-60.511z" fill="#fefefe"/><path d="m52.3174 100c0 26.334 21.3489 47.683 47.6826 47.683 26.334 0 47.681-21.349 47.681-47.683 0-26.3339-21.347-47.6829-47.681-47.6829-26.3337 0-47.6826 21.349-47.6826 47.6829z" fill="#9e9e9e"/><path d="m45.2251 100c0 30.252 24.5258 54.775 54.7759 54.775 30.252 0 54.775-24.523 54.775-54.775 0-30.2497-24.523-54.7754-54.775-54.7754-30.2501 0-54.7759 24.5257-54.7759 54.7754zm54.7759-63.4386c35.035 0 63.438 28.4035 63.438 63.4386 0 35.035-28.403 63.439-63.438 63.439-35.0355 0-63.439-28.404-63.439-63.439 0-35.0351 28.4035-63.4386 63.439-63.4386z" fill="#9e9e9e"/><g fill="#231f20"><path d="m100.001 38.1249c16.527 0 32.065 6.4367 43.75 18.1222 11.688 11.6879 18.122 27.225 18.122 43.7529 0 16.528-6.434 32.065-18.122 43.753-11.685 11.688-27.223 18.122-43.75 18.122-16.5283 0-32.0654-6.434-43.7533-18.122-11.6855-11.688-18.1222-27.225-18.1222-43.753 0-34.1179 27.7571-61.8751 61.8755-61.8751zm-65.0025 61.8751c0 17.362 6.7623 33.685 19.0395 45.965 12.2771 12.277 28.6006 19.037 45.963 19.037 35.84 0 64.999-29.159 64.999-65.002 0-17.3619-6.76-33.6855-19.037-45.9626s-28.601-19.0394-45.962-19.0394c-17.3624 0-33.6859 6.7623-45.963 19.0394-12.2772 12.2771-19.0395 28.6007-19.0395 45.9626z"/><path d="m62.4067 117.431c.1592.183.5085.489.6915.639.9195.879 2.9677 1.271 3.9989 1.271 2.0624 0 2.2691-1.483 2.2691-1.998 0-1.179-.9409-1.692-1.6276-2.086l-1.1452-.604c-1.5825-.938-4.3649-2.238-4.3649-6.384 0-1.664.297-3.417 1.4684-4.869 1.0978-1.333 2.5187-1.877 4.5835-1.877 2.3356 0 3.6876.787 4.3767 1.181l-.0072 5.146c-.3207-.332-.9551-.791-1.3234-1.064-.777-.603-1.7179-.905-2.4521-.905-.8483 0-1.169.302-1.3283.454-.2756.301-.5037.845-.5037 1.39 0 1.15 1.6585 1.694 2.1622 1.967l1.2617.696c.3897.212 1.4661.725 2.4284 1.903 1.169 1.424 1.3306 3.239 1.3306 4.356 0 2.029-.7105 3.54-.9172 3.965-1.352 2.633-3.69 3.206-6.0043 3.206-2.2929 0-4.227-.666-4.8923-.998z"/><path d="m82.8721 106.529v16.768h-5.0492l-.0522-16.768h-3.4382v-4.478h12.2676l.0048 4.478z"/><path d="m92.827 111.324c.8482.031 3.7708.06 3.7708-2.692 0-1.333-.5037-2.359-1.8557-2.359-.2756 0-1.6585.031-1.9317.031zm0 4.144-.0285 7.829h-4.7712v-21.246h5.2797c2.578 0 5.0776-.164 6.4082 1.197.5968.604 1.6038 2.177 1.6038 4.869 0 1.451-.276 2.511-.527 3.207-.618 1.725-2.2363 2.267-2.9919 2.721l3.6429 9.252h-5.1778l-2.6826-7.86z"/><path d="m102.924 123.297h5.122v-21.246h-5.122z"/><path d="m115.404 112.353v10.944h-4.937v-21.246h4.937v9.364l3.852-9.364h5.339l-4.367 9.82 4.711 11.426h-5.479c-.732-2.117-4.056-10.944-4.056-10.944z"/><path d="m131.298 114.503v4.204h5.75v4.59h-10.736v-21.244h10.534l.026 4.419h-5.62v3.828h5.083l.016 4.203z"/><path d="m72.0913 76.8334v16.5136h4.8567v4.707h-9.989v-21.2206z"/><path d="m101.864 98.6433c-2.7733 0-4.4223-.9386-5.57-2.148-2.2216-2.3594-2.7491-5.99-2.7491-8.713 0-7.4704 3.3693-11.4028 8.2261-11.4028 2.017 0 4.217.9528 4.217.9528l.012 5.3652c-.458-.5156-1.684-1.3567-3.31-1.3567-1.81 0-3.9676 1.4803-3.9676 6.1706 0 4.8995 2.3166 6.1706 4.1726 6.1706 1.38 0 2.385-.7912 3.048-1.3614l.024 5.2344s-2.407 1.0883-4.103 1.0883z"/><path d="m129.013 83.9425c.689-1.9674 1.306-3.766 2.338-7.0925h5.146c-1.718 3.8397-3.711 8.9221-4.973 12.1298 0 0-.069 6.8668 0 9.0742h-5.042c.093-2.6018 0-9.0742 0-9.0742-.687-1.573-5.177-12.1298-5.177-12.1298h4.773s1.148 2.7372 2.935 7.0925z"/><path d="m112.89 87.8322v10.2218h-4.938v-21.2468h4.938v9.3641l3.849-9.3641h5.341l-4.367 9.8203 5.434 11.4265h-5.479z"/><path d="m78.0532 92.1376c0 3.5831 3.1032 6.4867 6.931 6.4867s6.931-2.9036 6.931-6.4867l-.0024-15.3042h-4.7949v15.3042c0 1.1785-.9552 2.1337-2.1337 2.1337s-2.1337-.9552-2.1337-2.1337v-15.2424h-4.7925z"/></g></svg>

<svg width="200" height="200" viewBox="0 0 200 200" fill="none" xmlns="http://www.w3.org/2000/svg">
<path d="M160.495 100.216C160.495 66.7969 133.403 39.705 99.9839 39.705C66.5645 39.705 39.4727 66.7969 39.4727 100.216C39.4727 133.636 66.5645 160.727 99.9839 160.727C133.403 160.727 160.495 133.636 160.495 100.216Z" fill="#FEFEFE"/>
<path d="M52.3174 100C52.3174 126.334 73.6663 147.683 100 147.683C126.334 147.683 147.681 126.334 147.681 100C147.681 73.6661 126.334 52.3171 100 52.3171C73.6663 52.3171 52.3174 73.6661 52.3174 100Z" fill="#9E9E9E"/>
<path d="M45.2251 100C45.2251 130.252 69.7509 154.775 100.001 154.775C130.253 154.775 154.776 130.252 154.776 100C154.776 69.7503 130.253 45.2246 100.001 45.2246C69.7509 45.2246 45.2251 69.7503 45.2251 100ZM100.001 36.5614C135.036 36.5614 163.439 64.9649 163.439 100C163.439 135.035 135.036 163.439 100.001 163.439C64.9655 163.439 36.562 135.035 36.562 100C36.562 64.9649 64.9655 36.5614 100.001 36.5614Z" fill="#9E9E9E"/>
<path d="M100.001 38.1249C116.528 38.1249 132.066 44.5616 143.751 56.2471C155.439 67.935 161.873 83.4721 161.873 100C161.873 116.528 155.439 132.065 143.751 143.753C132.066 155.441 116.528 161.875 100.001 161.875C83.4727 161.875 67.9356 155.441 56.2477 143.753C44.5622 132.065 38.1255 116.528 38.1255 100C38.1255 65.8821 65.8826 38.1249 100.001 38.1249ZM34.9985 100C34.9985 117.362 41.7608 133.685 54.038 145.965C66.3151 158.242 82.6386 165.002 100.001 165.002C135.841 165.002 165 135.843 165 100C165 82.6381 158.24 66.3145 145.963 54.0374C133.686 41.7603 117.362 34.998 100.001 34.998C82.6386 34.998 66.3151 41.7603 54.038 54.0374C41.7608 66.3145 34.9985 82.6381 34.9985 100Z" fill="#231F20"/>
<path d="M62.4067 117.431C62.5659 117.614 62.9152 117.92 63.0982 118.07C64.0177 118.949 66.0659 119.341 67.0971 119.341C69.1595 119.341 69.3662 117.858 69.3662 117.343C69.3662 116.164 68.4253 115.651 67.7386 115.257L66.5934 114.653C65.0109 113.715 62.2285 112.415 62.2285 108.269C62.2285 106.605 62.5255 104.852 63.6969 103.4C64.7947 102.067 66.2156 101.523 68.2804 101.523C70.616 101.523 71.968 102.31 72.6571 102.704L72.6499 107.85C72.3292 107.518 71.6948 107.059 71.3265 106.786C70.5495 106.183 69.6086 105.881 68.8744 105.881C68.0261 105.881 67.7054 106.183 67.5461 106.335C67.2705 106.636 67.0424 107.18 67.0424 107.725C67.0424 108.875 68.7009 109.419 69.2046 109.692L70.4663 110.388C70.856 110.6 71.9324 111.113 72.8947 112.291C74.0637 113.715 74.2253 115.53 74.2253 116.647C74.2253 118.676 73.5148 120.187 73.3081 120.612C71.9561 123.245 69.6181 123.818 67.3038 123.818C65.0109 123.818 63.0768 123.152 62.4115 122.82L62.4067 117.431Z" fill="#231F20"/>
<path d="M82.8721 106.529V123.297H77.8229L77.7707 106.529H74.3325V102.051H86.6001L86.6049 106.529H82.8721Z" fill="#231F20"/>
<path d="M92.827 111.324C93.6752 111.355 96.5978 111.384 96.5978 108.632C96.5978 107.299 96.0941 106.273 94.7421 106.273C94.4665 106.273 93.0836 106.304 92.8104 106.304L92.827 111.324ZM92.827 115.468L92.7985 123.297H88.0273V102.051H93.307C95.885 102.051 98.3846 101.887 99.7152 103.248C100.312 103.852 101.319 105.425 101.319 108.117C101.319 109.568 101.043 110.628 100.792 111.324C100.174 113.049 98.5557 113.591 97.8001 114.045L101.443 123.297H96.2652L93.5826 115.437L92.827 115.468Z" fill="#231F20"/>
<path d="M102.924 123.297H108.046V102.051H102.924V123.297Z" fill="#231F20"/>
<path d="M115.404 112.353V123.297H110.467V102.051H115.404V111.415L119.256 102.051H124.595L120.228 111.871L124.939 123.297H119.46C118.728 121.18 115.404 112.353 115.404 112.353Z" fill="#231F20"/>
<path d="M131.298 114.503V118.707H137.048V123.297H126.312V102.053H136.846L136.872 106.472H131.252V110.3H136.335L136.351 114.503H131.298Z" fill="#231F20"/>
<path d="M72.0913 76.8334V93.347H76.948V98.054H66.959V76.8334H72.0913Z" fill="#231F20"/>
<path d="M101.864 98.6433C99.0907 98.6433 97.4417 97.7047 96.294 96.4953C94.0724 94.1359 93.5449 90.5053 93.5449 87.7823C93.5449 80.3119 96.9142 76.3795 101.771 76.3795C103.788 76.3795 105.988 77.3323 105.988 77.3323L106 82.6975C105.542 82.1819 104.316 81.3408 102.69 81.3408C100.88 81.3408 98.7224 82.8211 98.7224 87.5114C98.7224 92.4109 101.039 93.682 102.895 93.682C104.275 93.682 105.28 92.8908 105.943 92.3206L105.967 97.555C105.967 97.555 103.56 98.6433 101.864 98.6433Z" fill="#231F20"/>
<path d="M129.013 83.9425C129.702 81.9751 130.319 80.1765 131.351 76.85H136.497C134.779 80.6897 132.786 85.7721 131.524 88.9798C131.524 88.9798 131.455 95.8466 131.524 98.054H126.482C126.575 95.4522 126.482 88.9798 126.482 88.9798C125.795 87.4068 121.305 76.85 121.305 76.85H126.078C126.078 76.85 127.226 79.5872 129.013 83.9425Z" fill="#231F20"/>
<path d="M112.89 87.8322V98.054H107.952V76.8072H112.89V86.1713L116.739 76.8072H122.08L117.713 86.6275L123.147 98.054H117.668L112.89 87.8322Z" fill="#231F20"/>
<path d="M78.0532 92.1376C78.0532 95.7207 81.1564 98.6243 84.9842 98.6243C88.812 98.6243 91.9152 95.7207 91.9152 92.1376L91.9128 76.8334H87.1179V92.1376C87.1179 93.3161 86.1627 94.2713 84.9842 94.2713C83.8057 94.2713 82.8505 93.3161 82.8505 92.1376V76.8952H78.058L78.0532 92.1376Z" fill="#231F20"/>
</svg>
